public/icons/aave.svg

<svg width="74" height="74" viewBox="0 0 74 74" fill="none" xmlns="http://www.w3.org/2000/svg">
<path d="M37 69.375C54.8802 69.375 69.375 54.8802 69.375 37C69.375 19.1198 54.8802 4.625 37 4.625C19.1198 4.625 4.625 19.1198 4.625 37C4.625 54.8802 19.1198 69.375 37 69.375Z" fill="url(#paint0_linear_354_2915)"/>
<path d="M51.1682 49.8999L40.2208 23.4326C39.6033 22.0641 38.6855 21.3966 37.4756 21.3966H36.5077C35.2978 21.3966 34.38 22.0641 33.7625 23.4326L28.998 34.9641H25.3934C24.317 34.9724 23.4409 35.8402 23.4325 36.9249V36.95C23.4409 38.0263 24.317 38.9025 25.3934 38.9108H27.3292L22.7817 49.8999C22.6983 50.1419 22.6482 50.3922 22.6482 50.6509C22.6482 51.2684 22.8401 51.7523 23.1822 52.1278C23.5243 52.5033 24.0166 52.6869 24.6341 52.6869C25.0429 52.6785 25.4351 52.5534 25.7605 52.3114C26.111 52.0694 26.353 51.719 26.5449 51.3184L31.5513 38.9025H35.0224C36.0988 38.8941 36.975 38.0263 36.9833 36.9416V36.8915C36.975 35.8152 36.0988 34.939 35.0224 34.9307H33.1701L36.9916 25.4101L47.405 51.3101C47.597 51.7106 47.8389 52.0611 48.1894 52.303C48.5148 52.545 48.9153 52.6702 49.3158 52.6785C49.9333 52.6785 50.4173 52.495 50.7677 52.1195C51.1182 51.744 51.3017 51.26 51.3017 50.6426C51.3101 50.3922 51.2683 50.1336 51.1682 49.8999Z" fill="#E7E7E7"/>
<path d="M37 69.375C54.8802 69.375 69.375 54.8802 69.375 37C69.375 19.1198 54.8802 4.625 37 4.625C19.1198 4.625 4.625 19.1198 4.625 37C4.625 54.8802 19.1198 69.375 37 69.375Z" fill="url(#paint1_linear_354_2915)"/>
<path d="M51.1682 49.8999L40.2208 23.4326C39.6033 22.0641 38.6855 21.3966 37.4756 21.3966H36.5077C35.2978 21.3966 34.38 22.0641 33.7625 23.4326L28.998 34.9641H25.3934C24.317 34.9724 23.4409 35.8402 23.4325 36.9249V36.95C23.4409 38.0263 24.317 38.9025 25.3934 38.9108H27.3292L22.7817 49.8999C22.6983 50.1419 22.6482 50.3922 22.6482 50.6509C22.6482 51.2684 22.8401 51.7523 23.1822 52.1278C23.5243 52.5033 24.0166 52.6869 24.6341 52.6869C25.0429 52.6785 25.4351 52.5534 25.7605 52.3114C26.111 52.0694 26.353 51.719 26.5449 51.3184L31.5513 38.9025H35.0224C36.0988 38.8941 36.975 38.0263 36.9833 36.9416V36.8915C36.975 35.8152 36.0988 34.939 35.0224 34.9307H33.1701L36.9916 25.4101L47.405 51.3101C47.597 51.7106 47.8389 52.0611 48.1894 52.303C48.5148 52.545 48.9153 52.6702 49.3158 52.6785C49.9333 52.6785 50.4173 52.495 50.7677 52.1195C51.1182 51.744 51.3017 51.26 51.3017 50.6426C51.3101 50.3922 51.2683 50.1336 51.1682 49.8999Z" fill="#E7E7E7"/>
<defs>
<linearGradient id="paint0_linear_354_2915" x1="61.1383" y1="16.6894" x2="12.9643" y2="57.2229" gradientUnits="userSpaceOnUse">
<stop stop-color="#B6509E"/>
<stop offset="1" stop-color="#2EBAC6"/>
</linearGradient>
<linearGradient id="paint1_linear_354_2915" x1="61.1383" y1="16.6894" x2="12.9643" y2="57.2229" gradientUnits="userSpaceOnUse">
<stop stop-color="#B6509E"/>
<stop offset="1" stop-color="#2EBAC6"/>
</linearGradient>
</defs>
</svg>

<svg width="74" height="74" fill="none" xmlns="http://www.w3.org/2000/svg"><path d="M37 69.375c17.88 0 32.375-14.495 32.375-32.375C69.375 19.12 54.88 4.625 37 4.625 19.12 4.625 4.625 19.12 4.625 37 4.625 54.88 19.12 69.375 37 69.375Z" fill="url(#a)"/><path d="M51.168 49.9 40.221 23.433c-.618-1.369-1.535-2.036-2.745-2.036h-.968c-1.21 0-2.128.667-2.745 2.036l-4.765 11.531h-3.605a1.975 1.975 0 0 0-1.96 1.96v.026a1.98 1.98 0 0 0 1.96 1.96h1.936L22.782 49.9a2.297 2.297 0 0 0-.134.75c0 .618.192 1.102.534 1.478.342.375.835.559 1.452.559a1.941 1.941 0 0 0 1.127-.376c.35-.242.592-.592.784-.993l5.006-12.415h3.471a1.975 1.975 0 0 0 1.961-1.961v-.05a1.98 1.98 0 0 0-1.96-1.961H33.17l3.822-9.52 10.413 25.9c.192.4.434.75.784.992a1.96 1.96 0 0 0 1.127.376c.617 0 1.101-.184 1.452-.56.35-.375.534-.859.534-1.476a1.75 1.75 0 0 0-.134-.743Z" fill="#E7E7E7"/><path d="M37 69.375c17.88 0 32.375-14.495 32.375-32.375C69.375 19.12 54.88 4.625 37 4.625 19.12 4.625 4.625 19.12 4.625 37 4.625 54.88 19.12 69.375 37 69.375Z" fill="url(#b)"/><path d="M51.168 49.9 40.221 23.433c-.618-1.369-1.535-2.036-2.745-2.036h-.968c-1.21 0-2.128.667-2.745 2.036l-4.765 11.531h-3.605a1.975 1.975 0 0 0-1.96 1.96v.026a1.98 1.98 0 0 0 1.96 1.96h1.936L22.782 49.9a2.297 2.297 0 0 0-.134.75c0 .618.192 1.102.534 1.478.342.375.835.559 1.452.559a1.941 1.941 0 0 0 1.127-.376c.35-.242.592-.592.784-.993l5.006-12.415h3.471a1.975 1.975 0 0 0 1.961-1.961v-.05a1.98 1.98 0 0 0-1.96-1.961H33.17l3.822-9.52 10.413 25.9c.192.4.434.75.784.992a1.96 1.96 0 0 0 1.127.376c.617 0 1.101-.184 1.452-.56.35-.375.534-.859.534-1.476a1.75 1.75 0 0 0-.134-.743Z" fill="#E7E7E7"/><defs><linearGradient id="a" x1="61.138" y1="16.689" x2="12.964" y2="57.223" gradientUnits="userSpaceOnUse"><stop stop-color="#B6509E"/><stop offset="1" stop-color="#2EBAC6"/></linearGradient><linearGradient id="b" x1="61.138" y1="16.689" x2="12.964" y2="57.223" gradientUnits="userSpaceOnUse"><stop stop-color="#B6509E"/><stop offset="1" stop-color="#2EBAC6"/></linearGradient></defs></svg>
